app/images/dist/svg/phone.svg

<svg width="53" height="53" viewBox="0 0 53 53" fill="none" xmlns="http://www.w3.org/2000/svg">
<path d="M40.9472 28.6482C40.689 28.3895 40.3823 28.1843 40.0446 28.0442C39.707 27.9042 39.345 27.8321 38.9795 27.8321C38.614 27.8321 38.252 27.9042 37.9144 28.0442C37.5767 28.1843 37.27 28.3895 37.0118 28.6482L32.5753 33.0846C30.5185 32.4723 26.6805 31.0807 24.248 28.6482C21.8154 26.2156 20.4238 22.3776 19.8115 20.3208L24.248 15.8844C24.5066 15.6261 24.7119 15.3194 24.8519 14.9817C24.9919 14.6441 25.064 14.2822 25.064 13.9166C25.064 13.5511 24.9919 13.1892 24.8519 12.8515C24.7119 12.5139 24.5066 12.2071 24.248 11.9489L13.1151 0.816041C12.8569 0.557353 12.5501 0.352125 12.2125 0.2121C11.8748 0.0720743 11.5129 0 11.1474 0C10.7818 0 10.4199 0.0720743 10.0823 0.2121C9.74461 0.352125 9.43789 0.557353 9.17964 0.816041L1.63157 8.36411C0.573945 9.42174 -0.021663 10.8746 0.00060269 12.358C0.0646166 16.3213 1.11389 30.0871 11.9629 40.9361C22.8118 51.785 36.5776 52.8315 40.5437 52.8983H40.6216C42.0911 52.8983 43.48 52.3194 44.532 51.2673L52.0801 43.7193C52.3388 43.461 52.544 43.1543 52.684 42.8167C52.824 42.479 52.8961 42.1171 52.8961 41.7515C52.8961 41.386 52.824 41.0241 52.684 40.6864C52.544 40.3488 52.3388 40.0421 52.0801 39.7838L40.9472 28.6482ZM40.5938 47.3291C37.1203 47.2706 25.236 46.3383 15.8983 36.9978C6.53002 27.6295 5.62269 15.7034 5.56703 12.2996L11.1474 6.71924L18.3448 13.9166L14.7461 17.5153C14.4189 17.8422 14.1784 18.2455 14.0462 18.6886C13.9141 19.1318 13.8944 19.6009 13.989 20.0536C14.0558 20.3737 15.6896 27.9635 20.3097 32.5836C24.9298 37.2038 32.5197 38.8375 32.8397 38.9043C33.2921 39.0016 33.7617 38.9835 34.2053 38.8517C34.6489 38.7199 35.0522 38.4786 35.378 38.1501L38.9795 34.5514L46.1769 41.7488L40.5938 47.3291Z" fill="#FDF7F7"/>
</svg>

<svg width="53" height="53" fill="none" xmlns="http://www.w3.org/2000/svg"><path d="M40.947 28.648a2.78 2.78 0 00-3.935 0l-4.437 4.437c-2.057-.613-5.895-2.004-8.327-4.437-2.433-2.432-3.824-6.27-4.437-8.327l4.437-4.437a2.782 2.782 0 000-3.935L13.115.816a2.78 2.78 0 00-3.935 0L1.632 8.364A5.562 5.562 0 000 12.358c.064 3.963 1.113 17.73 11.962 28.578 10.849 10.849 24.615 11.895 28.58 11.962h.079a5.5 5.5 0 003.91-1.63l7.548-7.549a2.78 2.78 0 000-3.935L40.947 28.648zm-.353 18.681c-3.474-.058-15.358-.99-24.696-10.331C6.53 27.63 5.623 15.703 5.567 12.3l5.58-5.58 7.198 7.197-3.599 3.598a2.783 2.783 0 00-.757 2.539c.067.32 1.7 7.91 6.32 12.53 4.62 4.62 12.21 6.253 12.53 6.32a2.758 2.758 0 002.539-.754l3.602-3.599 7.197 7.198-5.583 5.58z" fill="#FDF7F7"/></svg>
